dist/img/icons/socials/facebook.svg

<svg width="18" height="19" viewBox="0 0 18 19" fill="none" xmlns="http://www.w3.org/2000/svg">
<g clip-path="url(#clip0)">
<path d="M10.3935 18.8359V10.6259H13.1481L13.5614 7.42534H10.3935V5.38226C10.3935 4.45592 10.6496 3.82463 11.9795 3.82463L13.6729 3.82393V0.961244C13.3801 0.923188 12.3748 0.835938 11.2048 0.835938C8.76168 0.835938 7.08907 2.32721 7.08907 5.06528V7.42534H4.32605V10.6259H7.08907V18.8359H10.3935Z" fill="white"/>
</g>
<defs>
<clipPath id="clip0">
<rect width="18" height="18" fill="white" transform="translate(-0.000488281 0.835938)"/>
</clipPath>
</defs>
</svg>

<svg width="18" height="19" fill="none" xmlns="http://www.w3.org/2000/svg"><g clip-path="url(#clip0)"><path d="M10.393 18.836v-8.21h2.755l.413-3.2h-3.168V5.381c0-.926.257-1.557 1.586-1.557l1.694-.001V.96a22.96 22.96 0 00-2.468-.125c-2.443 0-4.116 1.491-4.116 4.23v2.36H4.326v3.2H7.09v8.21h3.304z" fill="#fff"/></g><defs><clipPath id="clip0"><path fill="#fff" transform="translate(0 .836)" d="M0 0h18v18H0z"/></clipPath></defs></svg>
